X: 20323
M: 3/8
L: 1/16
K: C
cd |\
(e2c2)G2 | A4d2 | (G2A2B2) | c2(Bcdc) |\
e2c2G2 | A4d2 | (G2A2B2) | c4 :|
|: c2 |\
|: g2 |\
f2e2d2 | c2d2e2 | f2fefg | e4g2 |\
g4f2 | .e2.e2.e2 | d2(dc)(de) | c4 :|


